X:46
T:I’ll go no more to yon town. 2voices. Dix.46
M:C
L:1/8
Q:1/4=110
S:Anon. MS dated 1811, from Dixon collection, Holton le Moor, Lincs.
R:reel
C:MS attributes Gow, possibly the arrangement
N:Note beneath the tune says:
N:The Prince Regent’s Favorite dance at his
N:late Fete at Carlton House
O:England;Lincolnshire;Holton le Moor
Z:vmp.R.Greig 2012 <http://www.village-music-project.org.uk>
K:F
[V:1]|:A|Fffc “tr”A2Fc|(A/B/)c Fc AGGg|(a/g/f/e/) fc “tr”A2Fc|(A/B/)c GB AF F:|!
[V:2]|:z|F,2F,2F,2F,2|F,2A,2C2C,2|F,2F,2F,2A,2|C2C,2F,2F,:|!
[V:1]B|A>Fc>F dF cf|AF d/c/B/A/ BGGB|A>Fc>F dFcF|(A/B/c) GB AFFB|!
[V:2]z|F,2A,2C2A,2|F,2F,2C2C2|A,2F,2B,2A,2|C2C,2F,2F,,2|!
[V:1]A>Fc>F dF cf|AF (d/c/B/A/) BGGB|A>Fc>F dFcF|A/B/c GB AF F:|
[V:2]F,2A,2B,2A,2|F,2A,2B,2C2|A,2F,2B,2F,2|C2C,2F,2F,,:|

